images/agile-approach.svg

<svg width="66" height="66" viewBox="0 0 66 66" fill="none" xmlns="http://www.w3.org/2000/svg">
<path fill-rule="evenodd" clip-rule="evenodd" d="M65.1617 32.0282L64.2046 32.0133C64.2071 31.8534 64.2083 31.6931 64.2083 31.5326C64.2083 31.3721 64.2071 31.2118 64.2046 31.0519L65.1617 31.037C65.1643 31.2019 65.1656 31.3671 65.1656 31.5326C65.1656 31.6981 65.1643 31.8633 65.1617 32.0282ZM65.0446 28.7697L64.091 28.8537C64.0629 28.5348 64.0299 28.2174 63.992 27.9016L64.9425 27.7875C64.9816 28.1134 65.0157 28.4408 65.0446 28.7697ZM64.59 25.5452L63.6504 25.7283C63.5892 25.4144 63.5231 25.1022 63.4523 24.7918L64.3856 24.5788C64.4587 24.899 64.5269 25.2212 64.59 25.5452ZM63.7995 22.3862L62.8843 22.6672C62.7905 22.3616 62.6919 22.058 62.5886 21.7566L63.4943 21.4464C63.6008 21.7575 63.7026 22.0708 63.7995 22.3862ZM62.6804 19.3275L61.8 19.7034C61.6745 19.4096 61.5446 19.1181 61.4101 18.8292L62.2781 18.4254C62.4168 18.7236 62.551 19.0243 62.6804 19.3275ZM61.2458 16.4033L60.4097 16.8695C60.2542 16.5907 60.0945 16.3146 59.9305 16.0413L60.7514 15.5488C60.9206 15.8307 61.0854 16.1156 61.2458 16.4033ZM59.513 13.6456L58.7301 14.1966C58.5464 13.9356 58.3587 13.6777 58.1671 13.4229L58.9321 12.8474C59.1298 13.1102 59.3235 13.3763 59.513 13.6456ZM57.5021 11.0836L56.7808 11.7131C56.571 11.4727 56.3574 11.2356 56.1402 11.002L56.8412 10.3501C57.0653 10.5911 57.2856 10.8356 57.5021 11.0836ZM55.2357 8.74459L54.5838 9.44561C54.3502 9.22837 54.1131 9.01478 53.8727 8.80495L54.5022 8.08372C54.7502 8.30017 54.9947 8.52049 55.2357 8.74459ZM52.7384 6.65371L52.1629 7.41873C51.9081 7.22706 51.6502 7.03934 51.3892 6.85566L51.9402 6.07283C52.2094 6.26232 52.4755 6.45598 52.7384 6.65371ZM50.037 4.83439L49.5445 5.65528C49.2712 5.49131 48.9951 5.33156 48.7163 5.1761L49.1825 4.33998C49.4702 4.50038 49.755 4.66522 50.037 4.83439ZM47.1604 3.30764L46.7566 4.17563C46.4677 4.04121 46.1762 3.91124 45.8824 3.78581L46.2582 2.90537C46.5615 3.03482 46.8622 3.16894 47.1604 3.30764ZM44.1394 2.09148L43.8292 2.99714C43.5278 2.8939 43.2242 2.79531 42.9186 2.70144L43.1996 1.78632C43.515 1.88319 43.8283 1.98494 44.1394 2.09148ZM41.007 1.20022L40.7939 2.13351C40.4836 2.06265 40.1714 1.99658 39.8574 1.93538L40.0406 0.995757C40.3646 1.05891 40.6867 1.12709 41.007 1.20022ZM37.7982 0.643258C37.4724 0.604162 37.1449 0.570104 36.816 0.541163L36.7321 1.49478C37.051 1.52284 37.3683 1.55585 37.6842 1.59375L37.7982 0.643258ZM34.5488 0.424034L34.5339 1.38122C34.374 1.37872 34.2137 1.37747 34.0532 1.37747C33.8927 1.37747 33.7324 1.37872 33.5725 1.38122L33.5576 0.424034C33.7225 0.421458 33.8877 0.420166 34.0532 0.420166C34.2187 0.420166 34.3839 0.421459 34.5488 0.424034ZM31.2903 0.541162L31.3743 1.49478C31.0554 1.52284 30.738 1.55585 30.4222 1.59375L30.3081 0.643257C30.634 0.604162 30.9614 0.570103 31.2903 0.541162ZM28.0658 0.995756L28.2489 1.93537C27.935 1.99658 27.6228 2.06265 27.3124 2.13351L27.0994 1.20021C27.4196 1.12709 27.7418 1.05891 28.0658 0.995756ZM24.9068 1.78632L25.1878 2.70144C24.8822 2.79531 24.5786 2.8939 24.2772 2.99714L23.967 2.09148C24.2781 1.98494 24.5914 1.88319 24.9068 1.78632ZM21.8481 2.90537L22.224 3.78581C21.9302 3.91124 21.6387 4.04121 21.3498 4.17563L20.946 3.30764C21.2442 3.16893 21.5449 3.03481 21.8481 2.90537ZM18.9239 4.33998L19.3901 5.1761C19.1113 5.33155 18.8352 5.49131 18.5619 5.65528L18.0694 4.83438C18.3513 4.66521 18.6362 4.50038 18.9239 4.33998ZM16.1662 6.07283L16.7172 6.85566C16.4562 7.03934 16.1983 7.22706 15.9435 7.41873L15.368 6.65371C15.6308 6.45598 15.8969 6.26232 16.1662 6.07283ZM13.6042 8.08372L14.2337 8.80495C13.9933 9.01478 13.7562 9.22836 13.5226 9.44561L12.8707 8.74459C13.1117 8.52049 13.3562 8.30017 13.6042 8.08372ZM11.2652 10.3501L11.9662 11.002C11.749 11.2356 11.5354 11.4727 11.3256 11.7131L10.6043 11.0836C10.8208 10.8356 11.0411 10.5911 11.2652 10.3501ZM9.17431 12.8474L9.93933 13.4229C9.74766 13.6777 9.55994 13.9356 9.37626 14.1966L8.59343 13.6456C8.78292 13.3763 8.97658 13.1102 9.17431 12.8474ZM7.35499 15.5488L8.17588 16.0413C8.01191 16.3146 7.85216 16.5907 7.6967 16.8695L6.86058 16.4033C7.02098 16.1156 7.18582 15.8307 7.35499 15.5488ZM5.82824 18.4254L6.69623 18.8291C6.56182 19.1181 6.43184 19.4096 6.30641 19.7034L5.42597 19.3275C5.55542 19.0243 5.68954 18.7236 5.82824 18.4254ZM4.61208 21.4464L5.51774 21.7566C5.4145 22.058 5.31591 22.3616 5.22204 22.6672L4.30692 22.3862C4.40379 22.0707 4.50554 21.7575 4.61208 21.4464ZM3.72082 24.5788L4.65411 24.7918C4.58325 25.1022 4.51718 25.4144 4.45598 25.7283L3.51636 25.5452C3.57951 25.2212 3.64769 24.899 3.72082 24.5788ZM36.816 62.524L36.7321 61.5704C37.051 61.5423 37.3683 61.5093 37.6842 61.4714L37.7982 62.4219C37.4724 62.461 37.1449 62.4951 36.816 62.524ZM40.0406 62.0694L39.8574 61.1298C40.1714 61.0686 40.4836 61.0025 40.7939 60.9317L41.007 61.865C40.6867 61.9381 40.3646 62.0063 40.0406 62.0694ZM43.1996 61.2789L42.9186 60.3637C43.2242 60.2699 43.5278 60.1713 43.8292 60.068L44.1394 60.9737C43.8283 61.0802 43.515 61.182 43.1996 61.2789ZM46.2582 60.1598L45.8824 59.2794C46.1762 59.1539 46.4677 59.024 46.7566 58.8895L47.1604 59.7575C46.8622 59.8962 46.5615 60.0304 46.2582 60.1598ZM49.1825 58.7252L48.7163 57.8891C48.9951 57.7336 49.2712 57.5739 49.5445 57.4099L50.037 58.2308C49.755 58.4 49.4702 58.5648 49.1825 58.7252ZM51.9402 56.9924C52.2094 56.8029 52.4755 56.6092 52.7384 56.4115L52.1629 55.6465C51.9081 55.8381 51.6502 56.0258 51.3892 56.2095L51.9402 56.9924ZM54.5022 54.9815L53.8727 54.2602C54.1131 54.0504 54.3502 53.8368 54.5838 53.6196L55.2357 54.3206C54.9947 54.5447 54.7502 54.765 54.5022 54.9815ZM56.8412 52.7151C57.0653 52.4741 57.2856 52.2296 57.5021 51.9816L56.7808 51.3521C56.571 51.5925 56.3574 51.8296 56.1402 52.0632L56.8412 52.7151ZM58.9321 50.2178L58.167 49.6423C58.3587 49.3875 58.5464 49.1296 58.7301 48.8686L59.5129 49.4196C59.3235 49.6888 59.1298 49.9549 58.9321 50.2178ZM60.7514 47.5164L59.9305 47.0239C60.0945 46.7506 60.2542 46.4745 60.4097 46.1957L61.2458 46.6619C61.0854 46.9496 60.9206 47.2344 60.7514 47.5164ZM62.2781 44.6398L61.4101 44.236C61.5446 43.9471 61.6745 43.6556 61.8 43.3618L62.6804 43.7376C62.551 44.0409 62.4168 44.3416 62.2781 44.6398ZM63.4943 41.6188L62.5886 41.3086C62.6919 41.0072 62.7905 40.7036 62.8843 40.398L63.7995 40.679C63.7026 40.9944 63.6008 41.3077 63.4943 41.6188ZM64.3856 38.4864L63.4523 38.2733C63.5231 37.963 63.5892 37.6508 63.6504 37.3368L64.59 37.52C64.5269 37.844 64.4587 38.1661 64.3856 38.4864ZM64.9425 35.2776L63.992 35.1636C64.0299 34.8477 64.0629 34.5304 64.091 34.2115L65.0446 34.2954C65.0157 34.6243 64.9816 34.9518 64.9425 35.2776Z" fill="white" fill-opacity="0.7"/>
<line x1="2.94067" y1="62.1497" x2="34.5317" y2="62.1497" stroke="white"/>
<line x1="33.7947" y1="62.1497" x2="60.5992" y2="62.1497" stroke="white" stroke-dasharray="1 2.3"/>
<path d="M64.4573 62.0696L59.4314 64.9712L59.4314 59.1679L64.4573 62.0696Z" fill="#7ACC00"/>
<path d="M3.75856 32.1653L0.856885 27.1394L6.66024 27.1394L3.75856 32.1653Z" fill="white" fill-opacity="0.7"/>
<path fill-rule="evenodd" clip-rule="evenodd" d="M55.5443 40.1967C55.5443 52.066 45.9224 61.6879 34.0532 61.6879C34.0044 61.6879 33.9557 61.6877 33.907 61.6874V62.6447C33.9557 62.645 34.0044 62.6452 34.0532 62.6452C46.4511 62.6452 56.5016 52.5947 56.5016 40.1967C56.5016 27.7988 46.4511 17.7483 34.0532 17.7483C21.6552 17.7483 11.6047 27.7988 11.6047 40.1967C11.6047 40.2183 11.6048 40.2399 11.6048 40.2615H12.5621C12.5621 40.2399 12.562 40.2183 12.562 40.1967C12.562 28.3275 22.1839 18.7056 34.0532 18.7056C45.9224 18.7056 55.5443 28.3275 55.5443 40.1967Z" fill="white"/>
<path d="M40.1701 42.9996C39.611 42.4472 39.0333 41.8761 39.0333 39.1797C39.0333 36.4476 37.0274 34.1755 34.411 33.758C34.5315 33.5829 34.5959 33.3752 34.5956 33.1626C34.5956 32.5811 34.1242 32.1096 33.5426 32.1096C32.9611 32.1096 32.4896 32.5811 32.4896 33.1626C32.4893 33.3752 32.5537 33.5829 32.6742 33.7581C30.0579 34.1756 28.052 36.4477 28.052 39.1798C28.052 41.8759 27.4745 42.4471 26.9153 42.9994C25.3327 44.5627 26.4917 46.8516 28.3737 46.8516H31.4366C31.4366 48.0147 32.3795 48.9576 33.5426 48.9576C34.7057 48.9576 35.6486 48.0147 35.6486 46.8516H38.7116C40.5935 46.8516 41.7526 44.5619 40.1701 42.9996ZM33.5426 47.6414C33.1072 47.6414 32.7529 47.2871 32.7529 46.8516H34.3324C34.3324 47.2871 33.9781 47.6414 33.5426 47.6414ZM38.7119 45.2721H28.3731C27.8215 45.2721 27.546 44.6012 27.9343 44.2128C28.8749 43.2722 29.6315 42.3792 29.6315 39.1798C29.6315 37.0231 31.386 35.2686 33.5426 35.2686C35.6992 35.2686 37.4538 37.0231 37.4538 39.1798C37.4538 42.3931 38.2179 43.279 39.1507 44.2128C39.5407 44.6028 39.2612 45.2721 38.7119 45.2721Z" fill="white"/>
<path d="M12.0637 44.4329L9.16206 39.407L14.9654 39.407L12.0637 44.4329Z" fill="#7ACC00"/>
</svg>

<?xml version="1.0" encoding="utf-8"?>
<!-- Generator: Adobe Illustrator 23.0.1, SVG Export Plug-In . SVG Version: 6.00 Build 0)  -->
<svg version="1.1" id="Layer_1" xmlns="http://www.w3.org/2000/svg" xmlns:xlink="http://www.w3.org/1999/xlink" x="0px" y="0px"
	 viewBox="0 0 66 66" style="enable-background:new 0 0 66 66;" xml:space="preserve">
<style type="text/css">
	.st0{fill-rule:evenodd;clip-rule:evenodd;fill:#FFFFFF;fill-opacity:0.7;}
	.st1{fill:none;stroke:#FFFFFF;}
	.st2{fill:none;stroke:#FFFFFF;stroke-dasharray:1,2.3;}
	.st3{fill:#93CB40;}
	.st4{fill:#FFFFFF;fill-opacity:0.7;}
	.st5{fill-rule:evenodd;clip-rule:evenodd;fill:#FFFFFF;}
	.st6{fill:#FFFFFF;}
</style>
<path class="st0" d="M65.2,32l-1,0c0-0.2,0-0.3,0-0.5s0-0.3,0-0.5l1,0c0,0.2,0,0.3,0,0.5C65.2,31.7,65.2,31.9,65.2,32z M65,28.8
	l-1,0.1c0-0.3-0.1-0.6-0.1-1l1-0.1C65,28.1,65,28.4,65,28.8z M64.6,25.5l-0.9,0.2c-0.1-0.3-0.1-0.6-0.2-0.9l0.9-0.2
	C64.5,24.9,64.5,25.2,64.6,25.5z M63.8,22.4l-0.9,0.3c-0.1-0.3-0.2-0.6-0.3-0.9l0.9-0.3C63.6,21.8,63.7,22.1,63.8,22.4z M62.7,19.3
	l-0.9,0.4c-0.1-0.3-0.3-0.6-0.4-0.9l0.9-0.4C62.4,18.7,62.6,19,62.7,19.3z M61.2,16.4l-0.8,0.5c-0.2-0.3-0.3-0.6-0.5-0.8l0.8-0.5
	C60.9,15.8,61.1,16.1,61.2,16.4z M59.5,13.6l-0.8,0.6c-0.2-0.3-0.4-0.5-0.6-0.8l0.8-0.6C59.1,13.1,59.3,13.4,59.5,13.6z M57.5,11.1
	l-0.7,0.6c-0.2-0.2-0.4-0.5-0.6-0.7l0.7-0.7C57.1,10.6,57.3,10.8,57.5,11.1z M55.2,8.7l-0.7,0.7c-0.2-0.2-0.5-0.4-0.7-0.6l0.6-0.7
	C54.8,8.3,55,8.5,55.2,8.7z M52.7,6.7l-0.6,0.8c-0.3-0.2-0.5-0.4-0.8-0.6l0.6-0.8C52.2,6.3,52.5,6.5,52.7,6.7z M50,4.8l-0.5,0.8
	c-0.3-0.2-0.5-0.3-0.8-0.5l0.5-0.8C49.5,4.5,49.8,4.7,50,4.8z M47.2,3.3l-0.4,0.9c-0.3-0.1-0.6-0.3-0.9-0.4l0.4-0.9
	C46.6,3,46.9,3.2,47.2,3.3z M44.1,2.1L43.8,3c-0.3-0.1-0.6-0.2-0.9-0.3l0.3-0.9C43.5,1.9,43.8,2,44.1,2.1z M41,1.2l-0.2,0.9
	c-0.3-0.1-0.6-0.1-0.9-0.2L40,1C40.4,1.1,40.7,1.1,41,1.2z M37.8,0.6c-0.3,0-0.7-0.1-1-0.1l-0.1,1c0.3,0,0.6,0.1,1,0.1L37.8,0.6z
	 M34.5,0.4l0,1c-0.2,0-0.3,0-0.5,0s-0.3,0-0.5,0l0-1c0.2,0,0.3,0,0.5,0S34.4,0.4,34.5,0.4z M31.3,0.5l0.1,1c-0.3,0-0.6,0.1-1,0.1
	l-0.1-1C30.6,0.6,31,0.6,31.3,0.5z M28.1,1l0.2,0.9c-0.3,0.1-0.6,0.1-0.9,0.2l-0.2-0.9C27.4,1.1,27.7,1.1,28.1,1z M24.9,1.8l0.3,0.9
	c-0.3,0.1-0.6,0.2-0.9,0.3L24,2.1C24.3,2,24.6,1.9,24.9,1.8z M21.8,2.9l0.4,0.9c-0.3,0.1-0.6,0.3-0.9,0.4l-0.4-0.9
	C21.2,3.2,21.5,3,21.8,2.9z M18.9,4.3l0.5,0.8c-0.3,0.2-0.6,0.3-0.8,0.5l-0.5-0.8C18.4,4.7,18.6,4.5,18.9,4.3z M16.2,6.1l0.6,0.8
	c-0.3,0.2-0.5,0.4-0.8,0.6l-0.6-0.8C15.6,6.5,15.9,6.3,16.2,6.1z M13.6,8.1l0.6,0.7C14,9,13.8,9.2,13.5,9.4l-0.7-0.7
	C13.1,8.5,13.4,8.3,13.6,8.1z M11.3,10.4L12,11c-0.2,0.2-0.4,0.5-0.6,0.7l-0.7-0.6C10.8,10.8,11,10.6,11.3,10.4z M9.2,12.8l0.8,0.6
	c-0.2,0.3-0.4,0.5-0.6,0.8l-0.8-0.6C8.8,13.4,9,13.1,9.2,12.8z M7.4,15.5L8.2,16c-0.2,0.3-0.3,0.5-0.5,0.8l-0.8-0.5
	C7,16.1,7.2,15.8,7.4,15.5z M5.8,18.4l0.9,0.4c-0.1,0.3-0.3,0.6-0.4,0.9l-0.9-0.4C5.6,19,5.7,18.7,5.8,18.4z M4.6,21.4l0.9,0.3
	c-0.1,0.3-0.2,0.6-0.3,0.9l-0.9-0.3C4.4,22.1,4.5,21.8,4.6,21.4z M3.7,24.6l0.9,0.2c-0.1,0.3-0.1,0.6-0.2,0.9l-0.9-0.2
	C3.6,25.2,3.6,24.9,3.7,24.6z M36.8,62.5l-0.1-1c0.3,0,0.6-0.1,1-0.1l0.1,1C37.5,62.5,37.1,62.5,36.8,62.5z M40,62.1l-0.2-0.9
	c0.3-0.1,0.6-0.1,0.9-0.2l0.2,0.9C40.7,61.9,40.4,62,40,62.1z M43.2,61.3l-0.3-0.9c0.3-0.1,0.6-0.2,0.9-0.3l0.3,0.9
	C43.8,61.1,43.5,61.2,43.2,61.3z M46.3,60.2l-0.4-0.9c0.3-0.1,0.6-0.3,0.9-0.4l0.4,0.9C46.9,59.9,46.6,60,46.3,60.2z M49.2,58.7
	l-0.5-0.8c0.3-0.2,0.6-0.3,0.8-0.5l0.5,0.8C49.8,58.4,49.5,58.6,49.2,58.7z M51.9,57c0.3-0.2,0.5-0.4,0.8-0.6l-0.6-0.8
	c-0.3,0.2-0.5,0.4-0.8,0.6L51.9,57z M54.5,55l-0.6-0.7c0.2-0.2,0.5-0.4,0.7-0.6l0.7,0.7C55,54.5,54.8,54.8,54.5,55z M56.8,52.7
	c0.2-0.2,0.4-0.5,0.7-0.7l-0.7-0.6c-0.2,0.2-0.4,0.5-0.6,0.7L56.8,52.7z M58.9,50.2l-0.8-0.6c0.2-0.3,0.4-0.5,0.6-0.8l0.8,0.6
	C59.3,49.7,59.1,50,58.9,50.2z M60.8,47.5L59.9,47c0.2-0.3,0.3-0.5,0.5-0.8l0.8,0.5C61.1,46.9,60.9,47.2,60.8,47.5z M62.3,44.6
	l-0.9-0.4c0.1-0.3,0.3-0.6,0.4-0.9l0.9,0.4C62.6,44,62.4,44.3,62.3,44.6z M63.5,41.6l-0.9-0.3c0.1-0.3,0.2-0.6,0.3-0.9l0.9,0.3
	C63.7,41,63.6,41.3,63.5,41.6z M64.4,38.5l-0.9-0.2c0.1-0.3,0.1-0.6,0.2-0.9l0.9,0.2C64.5,37.8,64.5,38.2,64.4,38.5z M64.9,35.3
	l-1-0.1c0-0.3,0.1-0.6,0.1-1l1,0.1C65,34.6,65,35,64.9,35.3z"/>
<line class="st1" x1="2.9" y1="62.1" x2="34.5" y2="62.1"/>
<line class="st2" x1="33.8" y1="62.1" x2="60.6" y2="62.1"/>
<path class="st3" d="M64.5,62.1l-5,2.9v-5.8L64.5,62.1z"/>
<path class="st4" d="M3.8,32.2l-2.9-5h5.8L3.8,32.2z"/>
<path class="st5" d="M55.5,40.2c0,11.9-9.6,21.5-21.5,21.5c0,0-0.1,0-0.1,0v1c0,0,0.1,0,0.1,0c12.4,0,22.4-10.1,22.4-22.4
	c0-12.4-10.1-22.4-22.4-22.4c-12.4,0-22.4,10.1-22.4,22.4c0,0,0,0,0,0.1h1c0,0,0,0,0-0.1c0-11.9,9.6-21.5,21.5-21.5
	C45.9,18.7,55.5,28.3,55.5,40.2z"/>
<path class="st6" d="M40.2,43c-0.6-0.6-1.1-1.1-1.1-3.8c0-2.7-2-5-4.6-5.4c0.1-0.2,0.2-0.4,0.2-0.6c0-0.6-0.5-1.1-1.1-1.1
	c-0.6,0-1.1,0.5-1.1,1.1c0,0.2,0.1,0.4,0.2,0.6c-2.6,0.4-4.6,2.7-4.6,5.4c0,2.7-0.6,3.3-1.1,3.8c-1.6,1.6-0.4,3.9,1.5,3.9h3.1
	c0,1.2,0.9,2.1,2.1,2.1c1.2,0,2.1-0.9,2.1-2.1h3.1C40.6,46.9,41.8,44.6,40.2,43z M33.5,47.6c-0.4,0-0.8-0.4-0.8-0.8h1.6
	C34.3,47.3,34,47.6,33.5,47.6z M38.7,45.3H28.4c-0.6,0-0.8-0.7-0.4-1.1c0.9-0.9,1.7-1.8,1.7-5c0-2.2,1.8-3.9,3.9-3.9
	s3.9,1.8,3.9,3.9c0,3.2,0.8,4.1,1.7,5C39.5,44.6,39.3,45.3,38.7,45.3z"/>
<path class="st3" d="M12.1,44.4l-2.9-5H15L12.1,44.4z"/>
</svg>
